icons-rebrand/svg/away-calling-presence-bold.svg

<svg width="32" height="32" viewBox="0 0 32 32" fill="none" xmlns="http://www.w3.org/2000/svg">
<path d="M17 9C17 5.68629 19.6862 3 23 3C26.3137 3 29 5.68629 29 9C29 12.3137 26.3137 15 23 15C19.6862 15 17 12.3137 17 9ZM23 5C20.7908 5 19 6.79086 19 9C19 11.2091 20.7908 13 23 13C25.2091 13 27 11.2091 27 9C27 6.79086 25.2091 5 23 5ZM26 9C26 9.55228 25.5522 10 25 10L21 10C20.4477 10 20 9.55228 20 9C20 8.44772 20.4477 8 21 8L25 8C25.5522 8 26 8.44771 26 9Z" fill="#0F0F0F"/>
<path d="M28.1342 21.4132L25.3281 18.6032C25.0025 18.2781 24.6161 18.0203 24.1908 17.8446C23.7656 17.6689 23.3098 17.5787 22.8497 17.5792C22.3896 17.5797 21.9341 17.6709 21.5092 17.8476C21.0844 18.0243 20.6985 18.2829 20.3737 18.6088C20.3737 18.6088 19.1617 19.8426 18.649 20.3606C16.8011 20.2957 15.0467 19.532 13.7401 18.2237C12.4335 16.9154 11.6721 15.16 11.6097 13.312C12.1252 12.7986 13.3582 11.5851 13.3638 11.5795C14.0204 10.9222 14.3893 10.031 14.3893 9.10185C14.3893 8.1727 14.0204 7.28155 13.3638 6.62418L10.5576 3.81427C9.88909 3.17477 8.99961 2.81785 8.07446 2.81785C7.1493 2.81785 6.25982 3.17477 5.59128 3.81427L4.09073 5.31586C2.06592 7.34359 1.58784 14.4428 9.55332 22.4197C13.8333 26.7053 17.6088 28.2767 20.0236 28.8399C20.8981 29.049 21.7936 29.1576 22.6928 29.1637C24.1219 29.264 25.5343 28.807 26.6338 27.8885L28.1342 26.3874C28.7924 25.727 29.162 24.8327 29.162 23.9003C29.162 22.9679 28.7924 22.0735 28.1342 21.4132ZM26.8038 25.0544L25.3033 26.5568C24.6877 27.1732 22.9069 27.578 20.45 27.0048C18.275 26.4967 14.8495 25.0589 10.8838 21.0879C3.80319 13.9966 4.10362 7.96741 5.42126 6.64808L6.92171 5.14649C7.23211 4.84984 7.64495 4.68428 8.07432 4.68428C8.50368 4.68428 8.91651 4.84984 9.22692 5.14649L12.0331 7.9564C12.3357 8.25933 12.5062 8.66975 12.5073 9.09798C12.5083 9.52621 12.3398 9.93744 12.0386 10.2418C12.0386 10.2418 10.5049 11.7507 10.1356 12.1224C9.98312 12.3031 9.86842 12.5126 9.79834 12.7384C9.72826 12.9642 9.70423 13.2018 9.72766 13.4371C9.84774 15.7357 10.8017 17.9116 12.4107 19.5574C14.864 22.0149 18.8923 22.7858 19.8359 21.8373C20.2063 21.4665 21.7083 19.9367 21.7095 19.9356C22.013 19.6324 22.4245 19.4622 22.8535 19.4622C23.2824 19.4622 23.6939 19.6324 23.9974 19.9356L26.8036 22.7454C27.109 23.052 27.2805 23.4672 27.2806 23.9C27.2806 24.3328 27.1092 24.7477 26.8038 25.0544Z" fill="#0F0F0F"/>
</svg>

<svg xmlns="http://www.w3.org/2000/svg" width="32" height="32" viewBox="0 0 32 32"><path d="M17 9a6 6 0 1 1 12 0 6 6 0 0 1-12 0m6-4a4 4 0 1 0 0 8 4 4 0 0 0 0-8m3 4a1 1 0 0 1-1 1h-4a1 1 0 1 1 0-2h4a1 1 0 0 1 1 1M28.134 21.413l-2.806-2.81a3.5 3.5 0 0 0-4.954.006s-1.212 1.234-1.725 1.752a7.3 7.3 0 0 1-7.04-7.049c.516-.513 1.75-1.727 1.755-1.732a3.506 3.506 0 0 0 0-4.956l-2.806-2.81a3.59 3.59 0 0 0-4.967 0l-1.5 1.502C2.066 7.344 1.588 14.443 9.553 22.42c4.28 4.285 8.056 5.857 10.47 6.42.875.209 1.77.318 2.67.324 1.429.1 2.841-.357 3.94-1.276l1.501-1.5a3.523 3.523 0 0 0 0-4.975m-1.33 3.641-1.5 1.503c-.616.616-2.397 1.021-4.854.448-2.175-.508-5.6-1.946-9.566-5.917-7.08-7.091-6.78-13.12-5.463-14.44l1.5-1.502a1.67 1.67 0 0 1 2.306 0l2.806 2.81a1.62 1.62 0 0 1 .006 2.286s-1.534 1.509-1.903 1.88a1.77 1.77 0 0 0-.408 1.315 9.46 9.46 0 0 0 2.683 6.12c2.453 2.458 6.481 3.229 7.425 2.28.37-.37 1.872-1.9 1.874-1.901a1.62 1.62 0 0 1 2.287 0l2.807 2.81a1.637 1.637 0 0 1 0 2.308"/></svg>
